.local/share/icons/Gruvbox-Plus-Dark/mimetypes/scalable/text-x-fortran.svg

<svg width="256" height="256" viewBox="0 0 256 256" fill="none" xmlns="http://www.w3.org/2000/svg">
<g opacity="0.4" filter="url(#filter0_f)">
<path d="M55.0839 15.5636H155.608L216.009 75.7129L216.011 224.609C216.011 233.52 208.749 240.737 199.838 240.737H55.0838C46.1734 240.737 39 233.564 39 224.654V31.6474C39 22.737 46.1734 15.5636 55.0838 15.5636H55.0839Z" fill="#282828"/>
</g>
<path d="M55.0839 15H155.608L216.009 75.1493L216.011 224.045C216.011 232.956 208.749 240.174 199.838 240.174H55.0838C46.1734 240.174 39 233 39 224.09V31.0838C39 22.1734 46.1734 15 55.0838 15H55.0839Z" fill="#ebdbb2"/>
<path opacity="0.2" d="M55.0839 15H155.608L216.009 75.1493L216.011 224.045C216.011 232.956 208.749 240.174 199.838 240.174H55.0838C46.1734 240.174 39 233 39 224.09V31.0838C39 22.1734 46.1734 15 55.0838 15H55.0839Z" fill="url(#paint0_linear)"/>
<path fill-rule="evenodd" clip-rule="evenodd" d="M155.609 22.9787H55.0839C50.58 22.9787 46.9787 26.5799 46.9787 31.0838V224.09C46.9787 228.594 50.5799 232.195 55.0838 232.195H199.838C204.371 232.195 208.032 228.521 208.032 224.046V75.1493L155.609 22.9787ZM155.608 15H55.0839C46.1735 15 39 22.1734 39 31.0838V224.09C39 233 46.1734 240.174 55.0838 240.174H199.838C208.749 240.174 216.011 232.956 216.011 224.045L216.009 75.1493L155.608 15Z" fill="url(#paint1_linear)"/>
<path d="M82 188H138.229V177.714L127.257 176.171C121.771 175.314 120.914 174.114 120.914 167.6V135.714H130.686C143.543 135.714 142.343 138.629 144.914 154.057L154.514 152.343V109.143L144.914 110.343C142.343 124.4 141.486 124.571 128.971 124.571H120.914V80H133.086C150.057 80 154.686 81.5429 161.543 100.229L173.2 96.8L166.686 68H82V78.2857L89.8857 79.8286C95.0286 80.6857 95.5429 82.5714 95.5429 87.8857V167.429C95.5429 172.571 95.2 175.314 90.2286 176.171L82 177.714V188Z" fill="url(#paint2_linear)"/>
<path opacity="0.25" d="M155.608 17V61.2306C155.608 70.141 162.867 77.1605 171.777 77.1605L216.009 77.1493V75.1493L155.608 17Z" fill="#282828"/>
<path d="M155.608 15V59.2306C155.608 68.141 162.867 75.1605 171.777 75.1605L216.009 75.1493L155.608 15Z" fill="url(#paint3_linear)"/>
<defs>
<filter id="filter0_f" x="23.8778" y="0.441412" width="207.255" height="255.418" filterUnits="userSpaceOnUse" color-interpolation-filters="sRGB">
<feFlood flood-opacity="0" result="BackgroundImageFix"/>
<feBlend mode="normal" in="SourceGraphic" in2="BackgroundImageFix" result="shape"/>
<feGaussianBlur stdDeviation="7.5611" result="effect1_foregroundBlur"/>
</filter>
<linearGradient id="paint0_linear" x1="127.506" y1="245.178" x2="127.506" y2="15" gradientUnits="userSpaceOnUse">
<stop offset="0.0217391" stop-color="#928374"/>
<stop offset="1" stop-color="#a89984"/>
</linearGradient>
<linearGradient id="paint1_linear" x1="127.506" y1="245.178" x2="127.506" y2="15" gradientUnits="userSpaceOnUse">
<stop offset="0.0217391" stop-color="#928374"/>
<stop offset="1" stop-color="#a89984"/>
</linearGradient>
<linearGradient id="paint2_linear" x1="127.6" y1="190.667" x2="127.6" y2="68" gradientUnits="userSpaceOnUse">
<stop offset="0.0217391" stop-color="#928374"/>
<stop offset="1" stop-color="#a89984"/>
</linearGradient>
<linearGradient id="paint3_linear" x1="185.808" y1="76.4974" x2="185.808" y2="15" gradientUnits="userSpaceOnUse">
<stop offset="0.0217391" stop-color="#928374"/>
<stop offset="1" stop-color="#a89984"/>
</linearGradient>
</defs>
</svg>

<svg width="256" height="256" fill="none" version="1.1" viewBox="0 0 256 256" xmlns="http://www.w3.org/2000/svg">
  <path d="m55.08 15h100.5l60.4 60.15 2e-3 148.9c0 8.911-7.262 16.13-16.17 16.13h-144.8c-8.91 0-16.08-7.174-16.08-16.08v-193c0-8.91 7.173-16.08 16.08-16.08h1e-4z" fill="#ebdbb2"/>
  <path d="m55.08 15h100.5l60.4 60.15 2e-3 148.9c0 8.911-7.262 16.13-16.17 16.13h-144.8c-8.91 0-16.08-7.174-16.08-16.08v-193c0-8.91 7.173-16.08 16.08-16.08h1e-4z" fill="url(#paint0_linear)" opacity=".2"/>
  <path d="m155.6 22.98h-100.5c-4.504 0-8.105 3.601-8.105 8.105v193c0 4.504 3.601 8.105 8.105 8.105h144.8c4.533 0 8.194-3.674 8.194-8.149v-148.9l-52.42-52.17zm-1e-3 -7.979h-100.5c-8.91 0-16.08 7.173-16.08 16.08v193c0 8.91 7.173 16.08 16.08 16.08h144.8c8.911 0 16.17-7.218 16.17-16.13l-2e-3 -148.9-60.4-60.15z" clip-rule="evenodd" fill="url(#paint0_linear)" fill-rule="evenodd"/>
  <path d="m82 188h56.23v-10.29l-10.97-1.543c-5.486-0.857-6.343-2.057-6.343-8.571v-31.89h9.772c12.86 0 11.66 2.915 14.23 18.34l9.6-1.714v-43.2l-9.6 1.2c-2.571 14.06-3.428 14.23-15.94 14.23h-8.057v-44.57h12.17c16.97 0 21.6 1.543 28.46 20.23l11.66-3.429-6.514-28.8h-84.69v10.29l7.886 1.543c5.143 0.8571 5.657 2.743 5.657 8.057v79.54c0 5.142-0.3429 7.885-5.314 8.742l-8.229 1.543v10.29z" fill="url(#paint2_linear)"/>
  <path d="m155.6 17v44.23c0 8.91 7.259 15.93 16.17 15.93l44.23-0.0112v-2l-60.4-58.15z" fill="#282828" opacity=".25"/>
  <path d="m155.6 15v44.23c0 8.91 7.259 15.93 16.17 15.93l44.23-0.0112-60.4-60.15z" fill="url(#paint3_linear)"/>
  <defs>
    <linearGradient id="paint0_linear" x1="127.5" x2="127.5" y1="245.2" y2="15" gradientUnits="userSpaceOnUse">
      <stop stop-color="#928374" offset=".02174"/>
      <stop stop-color="#a89984" offset="1"/>
    </linearGradient>
    <linearGradient id="paint2_linear" x1="127.6" x2="127.6" y1="190.7" y2="68" gradientUnits="userSpaceOnUse">
      <stop stop-color="#928374" offset=".02174"/>
      <stop stop-color="#a89984" offset="1"/>
    </linearGradient>
    <linearGradient id="paint3_linear" x1="185.8" x2="185.8" y1="76.5" y2="15" gradientUnits="userSpaceOnUse">
      <stop stop-color="#928374" offset=".02174"/>
      <stop stop-color="#a89984" offset="1"/>
    </linearGradient>
  </defs>
</svg>
